X:7684
T:Vuggesang
C:M. Frey
O:Norway?
R:Rundsang, round, canon, vuggesang, lullaby
F:http://abc.musicaviva.com/tunes/frey-m/frey-vuggesang/frey-vuggesang.abc
M:2/4
L:1/8
K:F
"^1"a A c c|f2 Hc2|
w:Sov mitt narn sov stil-le
"^2"F F G/F/ G|HA4|
w:sov til da--gen gryr!
"^3"c c B/A/ B/G/|c2 HF2|
w:Snart en ny_ dag_ sti-ger,
"^4"C C D E|HF4|]
w:nat-tens m\"or-ke flyr
W:
W:Sov mitt narn sov stille
W:sov til dagen gryr!
W:Snart en ny dag stiger,
W:nattens m\"orke flyr.
W:
W:
W:  From Musica Viva - http://www.musicaviva.com
W:  the Internet center for free sheet music downloads.

